X:1
T:Title
%%score { ( 1 3 ) | ( 2 4 ) }
L:1/8
M:4/4
K:C
V:1 treble nm="Grand Piano"
V:3 treble 
V:2 bass 
V:4 bass 
V:1
 z4 z2[Q:1/4=100] [CE]>[DF] | [EG]2 [_E^F]>[=EG] [Ec]2 [=FB]>[FA] | [EG]6 [CE]2 | %3
 [DF]2 [^CE]>[DF] [FA]2 [EG]>[DF] | [CE]6 [CE]>[DF] | [EG]2 [_E^F]>[=EG] [Ec]2 [Gc]>[GB] | %6
[M:9/8] A2 ^G- G/A/ [^Fd]2- [Fd][FA]>[FA] |[M:4/4] c2 B>A G2 A>B |[M:3/4] [CEc]6 |[M:1/4] c>c | %10
[M:4/4] z d3- d2 z2 | c6 z2 | A>^G A>B c>d c>A | [CEG]6 c>c | z d3- d2 e2 |[M:9/8] c6- c z z | %16
[M:4/4] GGEG [^FA] [Fd]2 [=Fd][Q:1/4=99][Q:1/4=97][Q:1/4=96][Q:1/4=94][Q:1/4=93][Q:1/4=91][Q:1/4=90][Q:1/4=88][Q:1/4=87][Q:1/4=85][Q:1/4=84][Q:1/4=82][Q:1/4=81][Q:1/4=79][Q:1/4=78][Q:1/4=76] | %17
[M:3/4] c6 |] %18
V:2
 z4 z2 [C,G,]>[C,G,] | [C,C]2 [C,C]>[C,C] [C,G,]2 [C,A,]>[C,B,] | [C,C]6 [C,G,]2 | %3
 [G,,G,]2 [G,,G,]>[G,,G,] [G,,G,]2 [G,,G,]>[G,,G,] | [C,G,]6 [C,G,]>[C,G,] | %5
 [C,C]2 [C,C]>[C,C] [C,G,]2 [E,C]>[E,C] | %6
[M:9/8] [F,CF]2 [F,CF]- [F,CF]/[F,CF]/ [D,D]2- [D,D][D,D]>[D,D] | %7
[M:4/4][K:treble] [G,DF]2 [G,DF]>[G,CF] [G,B,F]2 [G,CF]>[G,DF] |[M:3/4][K:bass] C,6 | %9
[M:1/4] E>[K:treble]E |[M:4/4] z F3- F2 z2 | E2[K:bass] [C,A,]2 [C,G,]2 [E,C]>[E,C] | %12
 [F,CF]>[F,B,F] [F,CF]>[F,^G,F] [F,A,F]>[F,A,F] [F,A,F]>[F,CF] | C,6[K:treble] E>E | %14
 z F3- F2 G2[K:bass] |[M:9/8] A,A,[G,_B,]- [G,B,] [F,A,]2- [F,A,][^F,C_E]>[F,CE] | %16
[M:4/4] [G,CE][G,CE][G,C][G,CE] [D,C] [D,C]2 [G,B,] |[M:3/4] G,2 z2 z2 |] %18
V:3
 x8 | x8 | x8 | x8 | x8 | x8 |[M:9/8] x9 |[M:4/4] x8 |[M:3/4] x6 |[M:1/4] x2 | %10
[M:4/4] .B2 B,2 B,2 e2 | z2 F2 E2 [Gc]>[GB] | x8 | x8 | .B2 B,>B, B,B, z z/ B,/ | %15
[M:9/8] [CE-][CE]E- E F2- FA>A |[M:4/4] x8 |[M:3/4] E2 F2 E2 |] %18
V:4
 x8 | x8 | x8 | x8 | x8 | x8 |[M:9/8] x9 |[M:4/4][K:treble] x8 |[M:3/4][K:bass] x6 | %9
[M:1/4] x3/2[K:treble] x/ |[M:4/4] .D2 G,2 G,2 G2 | x2[K:bass] x6 | x8 | x6[K:treble] x2 | %14
 .E2 G,>G, G,G, [G,B,]>[K:bass]G, |[M:9/8] x9 |[M:4/4] x8 |[M:3/4] C,2- [C,-A,]2 [C,G,]2 |] %18

